X: 16390
T: Gwez-Kren En Noz
R: reel
M: 4/4
K: Edorian
P:A
|:B2cd B2B2|A2G2 AGF2|B2cd B2B2|A2GA F4:|
P:B
|:E2FG A2A2|F2GA BAB=c|B2AG F2EF|B2AG FAAB|
E2FG A2A2|F2GA B3=c|B2AG FAAB|1 GEFD EBBG:|2 GEFD E2BB||
P:C
B2cd B2A2|B2cd B3B .|Bdcd B2A2|B2cd B2AB||
P:D
E2FG A2=c2|B2AG FGFE|B2BB G2AG|FEDE F2EF|
B2BB G2AG|FEFG EBBB .|=c2B2 G2BG|FEDE FFEF|
B2BB G2AG|"*"FEFG E3B||"*3rd time:"FEFD B2BB|G2AG FEFG||
P:C
|:B2cd B2A2|B2cd B3B|Bdcd B2A2|B2cd B2AB:|

